X: 191
T:Sicilian Dance,The. JC.193
M:6/8
L:1/8
Q:120
S:John Clare,Poet,Helpstone (1793-1864)
R:Jig
O:England
A:Northamptonshire
N:
Z:vmp.P. Headford
K:G
G>AG BAG|d2dd2c|Bgbd2c|B2AG2D|!
G>AG BAG|d2dd2g|f>gf ed^c|d3-d2z|!
|a2dc'2b|agf gfg|a2dc'2b|agfg2d|!
ac'c' dbb|caa Bgg|cBAd2F|G3-G2z|!
|B3{c}BAB|G2G GBd|d3{d}cBc|c2BB2g|!
g2ff2e|e2dd2c|Bcd dcB|B3A2z|!
|g3ge^c|dedd3|c'3c'af|gagg2d|!
ec'c' dbb|caa Bgg|cBAd2F|G3-G2z|]
W:MS includes Dance Instructions.|
